picto/car-ferry-left.svg

<svg class="color-immutable" width="24" height="24" viewBox="0 0 24 24" fill="none" xmlns="http://www.w3.org/2000/svg"><path d="M0 22.5V1.5C0 0.675 0.675 0 1.5 0H22.5C23.325 0 24 0.675 24 1.5V22.5C24 23.325 23.325 24 22.5 24H1.5C0.675 24 0 23.325 0 22.5Z" fill="#2D327D"/><path d="M15.64 14.016C15.769 14.016 15.874 13.911 15.874 13.782V12.13C15.874 11.943 15.8 11.765 15.668 11.633L14.261 10.226C14.129 10.094 13.95 10.02 13.764 10.02H9.713C9.526 10.02 9.348 10.094 9.216 10.226L7.583 11.86L4.84 12.087C4.719 12.097 4.625 12.199 4.625 12.321V13.782C4.625 13.911 4.73 14.016 4.859 14.016H5.117V13.747C5.117 12.971 5.747 12.341 6.523 12.341C7.299 12.341 7.929 12.971 7.929 13.747V14.016H12.593V13.747C12.593 12.971 13.223 12.341 13.999 12.341C14.775 12.341 15.405 12.971 15.405 13.747V14.016H15.64ZM11.447 10.7L11.445 11.661C11.445 11.79 11.34 11.895 11.211 11.895H8.481C8.419 11.895 8.369 11.845 8.369 11.783C8.369 11.753 8.381 11.725 8.402 11.704L9.571 10.535C9.615 10.491 9.675 10.467 9.737 10.467H11.213C11.342 10.465 11.447 10.57 11.447 10.7ZM14.997 11.894H12.126C11.997 11.894 11.892 11.789 11.892 11.66V10.699C11.892 10.57 11.997 10.465 12.126 10.465H13.742C13.804 10.465 13.864 10.49 13.908 10.533L15.077 11.702C15.098 11.723 15.11 11.752 15.11 11.781C15.109 11.844 15.059 11.894 14.997 11.894Z" fill="white"/><path d="M5.27499 19.288C5.70599 19.192 6.14199 19.119 6.58099 19.069C6.94599 19.02 7.31299 18.996 7.68099 18.996C8.51699 18.996 9.34799 19.121 10.147 19.368C10.681 19.532 11.237 19.616 11.795 19.616C11.849 19.616 11.903 19.615 11.956 19.614C12.569 19.595 13.174 19.474 13.748 19.259C14.69 18.905 15.687 18.724 16.693 18.724C16.892 18.724 17.091 18.731 17.289 18.745C18.557 18.814 19.808 19.072 21 19.51L20.998 13.5H18.606C18.399 13.5 18.231 13.332 18.231 13.125C18.231 13.118 18.231 13.111 18.232 13.104L18.314 11.679C18.325 11.481 18.489 11.326 18.688 11.326H20.998V9.75H18.822C18.615 9.75 18.447 9.582 18.447 9.375C18.447 9.367 18.447 9.36 18.448 9.353L18.528 7.965C18.539 7.767 18.703 7.612 18.902 7.612H20.998V6.75H17.21C17.044 6.75 16.91 6.884 16.91 7.05V7.085C16.91 7.298 17.073 7.477 17.286 7.496L17.746 7.537L16.541 14.38C16.479 14.739 16.167 15 15.803 15H4.37299L3.12899 11.925L2.56799 12.137L5.27499 19.288Z" fill="white"/><path d="M21 20.071C19.802 19.609 18.539 19.338 17.257 19.269C17.07 19.256 16.882 19.249 16.694 19.249C15.751 19.249 14.817 19.419 13.934 19.75C13.306 19.986 12.644 20.117 11.974 20.138C11.915 20.14 11.856 20.141 11.797 20.141C11.186 20.141 10.578 20.049 9.99398 19.869C9.24498 19.638 8.46598 19.521 7.68298 19.521C7.33698 19.521 6.99098 19.544 6.64798 19.589C5.38798 19.733 4.15798 20.073 3.00198 20.595V21.549C4.17998 20.967 5.44898 20.593 6.75498 20.445C7.06298 20.404 7.37298 20.383 7.68398 20.383C8.38198 20.383 9.07498 20.488 9.74098 20.693C10.408 20.898 11.101 21.003 11.798 21.003C11.866 21.003 11.933 21.002 12.001 21C12.766 20.976 13.522 20.826 14.238 20.557C15.023 20.262 15.856 20.111 16.695 20.111C16.865 20.111 17.035 20.117 17.204 20.13C18.511 20.2 19.796 20.494 21.002 21.001L21 20.071Z" fill="white"/><path fill-rule="evenodd" clip-rule="evenodd" d="M6.52401 14.192C6.25501 14.192 6.03601 13.973 6.03601 13.704C6.03601 13.435 6.25501 13.216 6.52401 13.216C6.79301 13.216 7.01201 13.435 7.01201 13.704C7.01201 13.974 6.79401 14.192 6.52401 14.192ZM6.52401 12.638C5.93501 12.638 5.45801 13.116 5.45801 13.705C5.45801 14.294 5.93601 14.771 6.52401 14.771C7.11301 14.771 7.59001 14.293 7.59001 13.705C7.59101 13.116 7.11301 12.638 6.52401 12.638Z" fill="white"/><path fill-rule="evenodd" clip-rule="evenodd" d="M14.001 14.192C13.731 14.192 13.513 13.973 13.513 13.704C13.513 13.435 13.731 13.216 14.001 13.216C14.27 13.216 14.489 13.435 14.489 13.704C14.488 13.974 14.27 14.192 14.001 14.192ZM14.001 12.638C13.412 12.638 12.934 13.116 12.934 13.705C12.934 14.294 13.412 14.771 14.001 14.771C14.59 14.771 15.067 14.293 15.067 13.705C15.067 13.116 14.589 12.638 14.001 12.638Z" fill="white"/></svg>

<svg class="color-immutable" width="24" height="24" viewBox="0 0 24 24" fill="none" xmlns="http://www.w3.org/2000/svg"><g clip-path="url(#a)"><path d="M0 22.5v-21C0 .675.675 0 1.5 0h21c.825 0 1.5.675 1.5 1.5v21c0 .825-.675 1.5-1.5 1.5h-21C.675 24 0 23.325 0 22.5Z" fill="#2D327D"/><path d="M15.64 14.016a.234.234 0 0 0 .234-.234V12.13a.702.702 0 0 0-.206-.497l-1.407-1.407a.703.703 0 0 0-.497-.206H9.713a.702.702 0 0 0-.497.206L7.583 11.86l-2.743.227a.235.235 0 0 0-.215.234v1.461c0 .129.105.234.234.234h.258v-.269a1.407 1.407 0 0 1 2.812 0v.269h4.664v-.269a1.407 1.407 0 0 1 2.812 0v.269h.235ZM11.447 10.7l-.002.961a.234.234 0 0 1-.234.234h-2.73a.112.112 0 0 1-.079-.191l1.169-1.169a.235.235 0 0 1 .166-.068h1.476a.232.232 0 0 1 .234.233Zm3.55 1.194h-2.871a.234.234 0 0 1-.234-.234v-.961c0-.129.105-.234.234-.234h1.616c.062 0 .122.025.166.068l1.169 1.169c.021.021.033.05.033.079a.114.114 0 0 1-.113.113Z" fill="#fff"/><path d="M5.275 19.288c.431-.096.867-.169 1.306-.219a8.348 8.348 0 0 1 3.566.299 5.617 5.617 0 0 0 1.809.246 5.604 5.604 0 0 0 1.792-.355 8.37 8.37 0 0 1 3.541-.514c1.268.069 2.519.327 3.711.765l-.002-6.01h-2.392a.375.375 0 0 1-.375-.375l.001-.021.082-1.425a.374.374 0 0 1 .374-.353h2.31V9.75h-2.176a.375.375 0 0 1-.375-.375l.001-.022.08-1.388a.374.374 0 0 1 .374-.353h2.096V6.75H17.21a.3.3 0 0 0-.3.3v.035c0 .213.163.392.376.411l.46.041-1.205 6.843a.748.748 0 0 1-.738.62H4.373l-1.244-3.075-.561.212 2.707 7.151Z" fill="#fff"/><path d="M21 20.071a12.23 12.23 0 0 0-3.743-.802 7.86 7.86 0 0 0-3.323.481 6.116 6.116 0 0 1-2.137.391 6.123 6.123 0 0 1-1.803-.272 7.841 7.841 0 0 0-3.346-.28c-1.26.144-2.49.484-3.646 1.006v.954a11.359 11.359 0 0 1 3.753-1.104 6.991 6.991 0 0 1 2.986.248 7.001 7.001 0 0 0 2.26.307 6.985 6.985 0 0 0 2.237-.443 6.987 6.987 0 0 1 2.966-.427c1.307.07 2.592.364 3.798.871l-.002-.93Z" fill="#fff"/><path fill-rule="evenodd" clip-rule="evenodd" d="M6.524 14.192a.489.489 0 1 1 .001-.977.489.489 0 0 1-.001.977Zm0-1.554a1.067 1.067 0 1 0 .001 2.133 1.067 1.067 0 0 0-.001-2.133ZM14.001 14.192a.488.488 0 1 1 0-.976.488.488 0 0 1 0 .976Zm0-1.554a1.067 1.067 0 1 0 0 2.135 1.067 1.067 0 0 0 0-2.135Z" fill="#fff"/></g><defs><clipPath id="a"><path fill="#fff" d="M0 0h24v24H0z"/></clipPath></defs></svg>
